packages/icons/src/steer-fill.svg

<svg width="24" height="24" viewBox="0 0 24 24" fill="none" xmlns="http://www.w3.org/2000/svg">
<path fill-rule="evenodd" clip-rule="evenodd" d="M12 2C17.523 2 22 6.477 22 12C22 17.523 17.523 22 12 22C6.477 22 2 17.523 2 12C2 6.477 6.477 2 12 2ZM8 16L5.07 16.001C5.96403 17.545 7.34678 18.7472 9 19.418V17C8.99997 16.7551 8.91004 16.5187 8.74728 16.3356C8.58453 16.1526 8.36025 16.0357 8.117 16.007L8 16ZM16 16C15.7551 16 15.5187 16.09 15.3356 16.2527C15.1526 16.4155 15.0357 16.6397 15.007 16.883L15 17L15.001 19.418C16.5545 18.787 17.8714 17.6855 18.767 16.268L18.929 16.001L16 16ZM12 4C10.4062 4.00004 8.84875 4.47596 7.52715 5.36676C6.20556 6.25756 5.18004 7.52268 4.582 9H19.418C18.82 7.52268 17.7944 6.25756 16.4728 5.36676C15.1513 4.47596 13.5938 4.00004 12 4ZM12 15C13.1046 15 14 14.1046 14 13C14 11.8954 13.1046 11 12 11C10.8954 11 10 11.8954 10 13C10 14.1046 10.8954 15 12 15Z" fill="black"/>
</svg>

<svg xmlns="http://www.w3.org/2000/svg" width="24" height="24" fill="none" viewBox="0 0 24 24">
  <path fill="#000" fill-rule="evenodd" d="M12 2c5.523 0 10 4.477 10 10s-4.477 10-10 10S2 17.523 2 12 6.477 2 12 2ZM8 16l-2.93.001A8.03 8.03 0 0 0 9 19.418V17a1 1 0 0 0-.883-.993L8 16Zm8 0a1 1 0 0 0-.993.883L15 17l.001 2.418a8.028 8.028 0 0 0 3.766-3.15l.162-.267L16 16ZM12 4a8.003 8.003 0 0 0-7.418 5h14.836A8.003 8.003 0 0 0 12 4Zm0 11a2 2 0 1 0 0-4 2 2 0 0 0 0 4Z" clip-rule="evenodd"/>
</svg>
